X: 1
T: MacKinnon's Brook #2
C: trad.
R: strathspey
S: after Mary MacDonald
Z: 2020 John Chambers <jc:trillian.mit.edu>
M: C
L: 1/8
K: Ador
B |\
~A<A A>G E/E/E {G}E>D | E<G {EG}E>D C>D E<G |\
A/A/A A2 {AB}c>d e<a | ~g>e d>B ~A2 A :|
|: G |\
A/A/A A>A {B}c>d e<a | ~g>d e<g (3ddg (3BBG |\
A<A A>B {AB}c>d e<a | ~g>e d>B A2 A :|
